view/frontend/web/svg/flags/dm.svg

<svg width="24" height="24" viewbox="0 0 20 15" viewBox="0 0 20 15" fill="none" xmlns="http://www.w3.org/2000/svg">
<g clip-path="url(#clip0_270_60955)">
<rect width="20" height="15" fill="white"/>
<path fill-rule="evenodd" clip-rule="evenodd" d="M0 0V15H20V0H0Z" fill="#279E19"/>
<mask id="mask0_270_60955" style="mask-type:luminance" maskUnits="userSpaceOnUse" x="0" y="0" width="20" height="15">
<path fill-rule="evenodd" clip-rule="evenodd" d="M0 0V15H20V0H0Z" fill="white"/>
</mask>
<g mask="url(#mask0_270_60955)">
<path fill-rule="evenodd" clip-rule="evenodd" d="M10 0H11.25V8.75H20V10H11.25V15H10V10H0V8.75H10V0Z" fill="#F7FCFF"/>
<path fill-rule="evenodd" clip-rule="evenodd" d="M8.75 0H10V7.5H20V8.75H10V15H8.75V8.75H0V7.5H8.75V0Z" fill="#272727"/>
<path fill-rule="evenodd" clip-rule="evenodd" d="M7.5 0H8.75V6.25H20V7.5H8.75V15H7.5V7.5H0V6.25H7.5V0Z" fill="#FECA00"/>
<path fill-rule="evenodd" clip-rule="evenodd" d="M10 12.5C12.7614 12.5 15 10.2614 15 7.5C15 4.73858 12.7614 2.5 10 2.5C7.23858 2.5 5 4.73858 5 7.5C5 10.2614 7.23858 12.5 10 12.5Z" fill="#C51918"/>
<path fill-rule="evenodd" clip-rule="evenodd" d="M9.2037 5.25809C9.2037 5.25809 9.44116 4.48751 9.9928 4.8856C10.8578 5.31167 11.1432 5.80115 11.4771 6.35547C11.8111 6.90979 10.6583 6.50382 10.4433 6.19183C10.2282 5.87985 9.0353 5.77869 9.2037 5.51839C9.3721 5.25809 9.2037 5.25809 9.2037 5.25809Z" fill="#804BFF"/>
<path fill-rule="evenodd" clip-rule="evenodd" d="M9.00818 9.2034C9.00818 9.2034 8.42088 10.0068 9.00818 10.0068C9.59549 10.0068 11.9766 9.83398 11.6912 9.60512C11.4058 9.37625 9.29039 9.60512 9.29039 9.60512L9.00818 9.2034Z" fill="#A95601"/>
<path fill-rule="evenodd" clip-rule="evenodd" d="M9.88627 9.17811C9.82537 9.10941 8.75527 6.68115 9.25281 6.17646C9.75035 5.67177 10.0419 5.96833 10.0419 6.72511C10.0419 7.48188 10.0718 9.3651 9.88627 9.17811Z" fill="#804BFF"/>
<path fill-rule="evenodd" clip-rule="evenodd" d="M9.82331 8.78404C9.82331 8.78404 9.76155 9.37428 10.0651 10.0633C10.3686 10.7524 10.9818 10.7391 10.9818 10.1751C10.9818 9.61115 11.4292 10.1404 11.601 10.5168C11.7728 10.8932 11.3279 7.17449 10.6965 6.34254C10.0651 5.51058 9.45588 5.45717 9.63959 5.99479C9.82331 6.53241 9.82331 8.78404 9.82331 8.78404Z" fill="#279E19"/>
<path fill-rule="evenodd" clip-rule="evenodd" d="M9.45457 4.75C9.45457 4.75 9.18747 4.92128 9.18747 5.39303C9.18747 5.86479 9.81987 5.24697 9.81987 5.24697L9.45457 4.75Z" fill="#FECA00"/>
<path fill-rule="evenodd" clip-rule="evenodd" d="M9.51143 4.57095L10.0625 4.28125L10.6135 4.57095L10.5083 3.95735L10.9541 3.5228L10.338 3.43327L10.0625 2.875L9.78696 3.43327L9.17087 3.5228L9.61668 3.95735L9.51143 4.57095ZM9.51143 11.9459L10.0625 11.6562L10.6135 11.9459L10.5083 11.3323L10.9541 10.8978L10.338 10.8083L10.0625 10.25L9.78696 10.8083L9.17087 10.8978L9.61668 11.3323L9.51143 11.9459ZM13.5625 8.15624L13.0114 8.44594L13.1167 7.83234L12.6709 7.39779L13.2869 7.30826L13.5625 6.74999L13.838 7.30826L14.4541 7.39779L14.0083 7.83234L14.1135 8.44594L13.5625 8.15624ZM5.99172 7.83234L5.88648 8.44594L6.43753 8.15624L6.98858 8.44594L6.88334 7.83234L7.32914 7.39779L6.71305 7.30826L6.43753 6.74999L6.162 7.30826L5.54591 7.39779L5.99172 7.83234ZM7.79243 5.43874L7.61803 6.03638L7.24975 5.53443L6.62748 5.55325L6.99105 5.04788L6.78086 4.46188L7.37384 4.65149L7.86621 4.2705L7.86912 4.89305L8.38362 5.24359L7.79243 5.43874ZM12.9232 10.9125L13.0976 10.3149L13.6887 10.1197L13.1742 9.7692L13.1713 9.14664L12.679 9.52764L12.086 9.33802L12.2962 9.92403L11.9326 10.4294L12.5549 10.4106L12.9232 10.9125ZM13.0112 5.3659L12.8368 5.96354L12.4685 5.46159L11.8462 5.48041L12.2098 4.97504L11.9996 4.38904L12.5926 4.57865L13.0849 4.19766L13.0878 4.82021L13.6023 5.17075L13.0112 5.3659ZM7.76344 11.0888L7.93784 10.4912L8.52902 10.296L8.01453 9.94547L8.01162 9.32291L7.51925 9.7039L6.92627 9.51429L7.13646 10.1003L6.77288 10.6057L7.39516 10.5868L7.76344 11.0888Z" fill="#FECA00"/>
</g>
</g>
<defs>
<clipPath id="clip0_270_60955">
<rect width="20" height="15" fill="white"/>
</clipPath>
</defs>
</svg>

<svg width="24" height="24" viewbox="0 0 20 15" fill="none" xmlns="http://www.w3.org/2000/svg">
  <mask id="a" maskUnits="userSpaceOnUse" x="0" y="0" width="20" height="15">
    <path fill="#fff" d="M0 0h20v15H0z"/>
  </mask>
  <g mask="url(#a)">
    <path fill-rule="evenodd" clip-rule="evenodd" d="M0 0v15h20V0H0z" fill="#279E19"/>
    <mask id="b" maskUnits="userSpaceOnUse" x="0" y="0" width="20" height="15">
      <path fill-rule="evenodd" clip-rule="evenodd" d="M0 0v15h20V0H0z" fill="#fff"/>
    </mask>
    <g mask="url(#b)" fill-rule="evenodd" clip-rule="evenodd">
      <path d="M10 0h1.25v8.75H20V10h-8.75v5H10v-5H0V8.75h10V0z" fill="#F7FCFF"/>
      <path d="M8.75 0H10v7.5h10v1.25H10V15H8.75V8.75H0V7.5h8.75V0z" fill="#272727"/>
      <path d="M7.5 0h1.25v6.25H20V7.5H8.75V15H7.5V7.5H0V6.25h7.5V0z" fill="#FECA00"/>
      <path d="M10 12.5a5 5 0 100-10 5 5 0 000 10z" fill="#C51918"/>
      <path d="M9.204 5.258s.237-.77.789-.372c.865.426 1.15.915 1.484 1.47.334.554-.819.148-1.034-.164-.215-.312-1.408-.413-1.24-.674.17-.26 0-.26 0-.26z" fill="#804BFF"/>
      <path d="M9.008 9.203s-.587.804 0 .804 2.969-.173 2.683-.402c-.285-.229-2.4 0-2.4 0l-.283-.402z" fill="#A95601"/>
      <path d="M9.886 9.178c-.06-.069-1.13-2.497-.633-3.002.497-.504.789-.208.789.55 0 .756.03 2.64-.156 2.452z" fill="#804BFF"/>
      <path d="M9.823 8.784s-.061.59.242 1.28c.304.688.917.675.917.111 0-.564.447-.035.619.342.172.376-.273-3.343-.905-4.174-.63-.832-1.24-.886-1.056-.348.183.537.183 2.789.183 2.789z" fill="#279E19"/>
      <path d="M9.455 4.75s-.268.171-.268.643.633-.146.633-.146l-.365-.497zm.056-.18l.552-.289.55.29-.105-.614.446-.434-.616-.09-.275-.558-.276.558-.616.09.446.434-.106.614zm0 7.376l.552-.29.55.29-.105-.614.446-.434-.616-.09-.275-.558-.276.558-.616.09.446.434-.106.614zm4.052-3.79l-.552.29.106-.614-.446-.434.616-.09.275-.558.276.558.616.09-.446.434.106.614-.552-.29zm-7.571-.324l-.106.614.552-.29.55.29-.105-.614.446-.434-.616-.09-.275-.558-.276.558-.616.09.446.434zm1.8-2.393l-.174.597-.368-.502-.623.02.364-.506-.21-.586.593.19.492-.381.003.622.515.35-.592.196zm5.131 5.473l.175-.597.59-.195-.514-.35-.003-.623-.492.38-.593-.189.21.586-.363.505.622-.018.368.502zm.088-5.546l-.174.598-.368-.502-.623.018.364-.505-.21-.586.593.19.492-.381.003.622.514.35-.59.196zm-5.248 5.723l.175-.598.591-.195-.514-.35-.003-.623-.493.38-.593-.189.21.586-.363.506.622-.02.368.503z" fill="#FECA00"/>
    </g>
  </g>
</svg>
